styles/3/Numix/128/places/green-folder-books.svg

<?xml version="1.0" encoding="UTF-8" standalone="no"?>
<svg
   xmlns:dc="http://purl.org/dc/elements/1.1/"
   xmlns:cc="http://creativecommons.org/ns#"
   xmlns:rdf="http://www.w3.org/1999/02/22-rdf-syntax-ns#"
   xmlns:svg="http://www.w3.org/2000/svg"
   xmlns="http://www.w3.org/2000/svg"
   xmlns:sodipodi="http://sodipodi.sourceforge.net/DTD/sodipodi-0.dtd"
   xmlns:inkscape="http://www.inkscape.org/namespaces/inkscape"
   width="128px"
   height="128px"
   viewBox="0 0 128 128"
   version="1.1"
   id="svg2"
   inkscape:version="0.91 r"
   sodipodi:docname="green-folder-books.svg">
  <metadata
     id="metadata21">
    <rdf:RDF>
      <cc:Work
         rdf:about="">
        <dc:format>image/svg+xml</dc:format>
        <dc:type
           rdf:resource="http://purl.org/dc/dcmitype/StillImage" />
      </cc:Work>
    </rdf:RDF>
  </metadata>
  <defs
     id="defs19" />
  <sodipodi:namedview
     pagecolor="#ffffff"
     bordercolor="#666666"
     borderopacity="1"
     objecttolerance="10"
     gridtolerance="10"
     guidetolerance="10"
     inkscape:pageopacity="0"
     inkscape:pageshadow="2"
     inkscape:window-width="1366"
     inkscape:window-height="747"
     id="namedview17"
     showgrid="true"
     inkscape:zoom="1.84375"
     inkscape:cx="-50.169492"
     inkscape:cy="20.610169"
     inkscape:window-x="0"
     inkscape:window-y="21"
     inkscape:window-maximized="1"
     inkscape:current-layer="svg2">
    <inkscape:grid
       type="xygrid"
       id="grid4774" />
  </sodipodi:namedview>
  <path
     inkscape:connector-curvature="0"
     id="path5"
     d="m 12,24.000002 104,0 0,40 -104,0 z m 0,0"
     style="fill:#388e3c;fill-opacity:1;fill-rule:nonzero;stroke:none" />
  <path
     inkscape:connector-curvature="0"
     id="path7"
     d="m 24,24.000002 c 0,-4 0,-8 5.81641,-8 l 20.36719,0 c 5.8164,0 5.8164,4 5.8164,8 l 0,4 -32,0 z m 0,0"
     style="fill:#388e3c;fill-opacity:1;fill-rule:nonzero;stroke:none" />
  <path
     inkscape:connector-curvature="0"
     id="path9"
     d="m 20,32.000002 88,0 0,19.871094 -88,0 z m 0,0"
     style="fill:#94979e;fill-opacity:1;fill-rule:nonzero;stroke:none" />
  <path
     inkscape:connector-curvature="0"
     id="path11"
     d="m 28,28.000002 76,0 0,52 -76,0 z m 0,0"
     style="fill:#d7d7d9;fill-opacity:1;fill-rule:nonzero;stroke:none" />
  <path
     inkscape:connector-curvature="0"
     id="path13"
     d="m 24,36.000002 76,0 L 100,88 24,88 z m 0,0"
     style="fill:#f8f8f8;fill-opacity:1;fill-rule:nonzero;stroke:none" />
  <path
     inkscape:connector-curvature="0"
     id="path15"
     d="m 4,40.000002 120,0 L 115.42969,112 12.57032,112 z m 0,0"
     style="fill:#66bb6a;fill-opacity:1;fill-rule:nonzero;stroke:none" />
  <path
     sodipodi:nodetypes="ccccccccccccccccccccc"
     id="path53-8"
     d="M 68,99.99999 68,68 60,68.00001 60,100 Z M 56,65.99902 40,54.00101 40,86.002 56,98.00001 Z M 88,86.002 88,54.00101 72,65.99852 l 0,32.002 z M 85,52 C 76,52 70,55 64,60 58,55 52,52 43,52 l 17,12 8,0 z"
     style="fill:#103612;fill-opacity:1;fill-rule:nonzero;stroke:none;opacity:0.4"
     inkscape:connector-curvature="0" />
</svg>

<svg xmlns="http://www.w3.org/2000/svg" viewBox="0 0 128 128">
 <path d="m 12 24 104 0 0 40 -104 0 z m 0 0" style="fill:#388e3c;fill-opacity:1;stroke:none;fill-rule:nonzero"/>
 <path d="m 24 24 c 0 -4 0 -8 5.816 -8 l 20.367 0 c 5.816 0 5.816 4 5.816 8 l 0 4 -32 0 z m 0 0" style="fill:#388e3c;fill-opacity:1;stroke:none;fill-rule:nonzero"/>
 <path d="m 20 32 88 0 0 19.871 -88 0 z m 0 0" style="fill:#94979e;fill-opacity:1;stroke:none;fill-rule:nonzero"/>
 <path d="m 28 28 76 0 0 52 -76 0 z m 0 0" style="fill:#d7d7d9;fill-opacity:1;stroke:none;fill-rule:nonzero"/>
 <path d="m 24 36 76 0 l 0 52 -76 0 z m 0 0" style="fill:#f8f8f8;fill-opacity:1;stroke:none;fill-rule:nonzero"/>
 <path d="m 4 40 120 0 l -8.57 72 -102.86 0 z m 0 0" style="fill:#66bb6a;fill-opacity:1;stroke:none;fill-rule:nonzero"/>
 <path d="m 68 100 0 -32 -8 0 0 32 m -4 -34 -16 -11.998 0 32 16 11.998 m 32 -11.998 0 -32 -16 11.998 l 0 32 z m -3 -34 c -9 0 -15 3 -21 8 -6 -5 -12 -8 -21 -8 l 17 12 8 0 z" style="fill:#103612;opacity:0.4;fill-opacity:1;stroke:none;fill-rule:nonzero"/>
</svg>
